X: 1
T: An Dro Moyland
M: 4/4
L: 1/8
R: reel
K: Emin
|:&quot;Em&quot;EG/A/ &quot;G&quot;B>A &quot;Bm&quot;Bd &quot;Em&quot;e2|ed/c/ &quot;Bm&quot;B>A &quot;D&quot;FA &quot;Em&quot;GF|
&quot;Em&quot;EG/A/ &quot;G&quot;B>A &quot;Bm&quot;Bd &quot;Em&quot;e2|ed/c/ &quot;Bm&quot;B>G &quot;D&quot;FG &quot;Em&quot;E2:|
|:&quot;Em&quot; B/c/B/A/ &quot;D&quot;FF/A/ &quot;Bm&quot;FF/A/ &quot;Em&quot;BG | B/c/B/A/ &quot;D&quot;FF/A/ &quot;Bm&quot;Bd &quot;Em&quot;BA|
&quot;Em&quot; B/c/B/A/ &quot;D&quot;FF/A/ &quot;Bm&quot;FF/A/ &quot;Em&quot;BG | B/c/B/A/ &quot;D&quot;FF/A/ B/A/G/F/ &quot;Em&quot;E2:|
